svg/fluentui-system-icons/ic_fluent_web_asset_20_regular.svg

<svg width="20" height="20" viewBox="0 0 20 20" fill="none" xmlns="http://www.w3.org/2000/svg">
<path d="M6.5 6C6.22386 6 6 6.22386 6 6.5C6 6.77614 6.22386 7 6.5 7H13.5C13.7761 7 14 6.77614 14 6.5C14 6.22386 13.7761 6 13.5 6H6.5ZM6 3C4.34315 3 3 4.34315 3 6V14C3 15.6569 4.34315 17 6 17H14C15.6569 17 17 15.6569 17 14V6C17 4.34315 15.6569 3 14 3H6ZM4 6C4 4.89543 4.89543 4 6 4H14C15.1046 4 16 4.89543 16 6V14C16 15.1046 15.1046 16 14 16H6C4.89543 16 4 15.1046 4 14V6Z" fill="#212121"/>
</svg>

<svg xmlns="http://www.w3.org/2000/svg" width="20" height="20"><path d="M6.5 6a.5.5 0 0 0 0 1h7a.5.5 0 0 0 0-1h-7ZM6 3a3 3 0 0 0-3 3v8a3 3 0 0 0 3 3h8a3 3 0 0 0 3-3V6a3 3 0 0 0-3-3H6ZM4 6a2 2 0 0 1 2-2h8a2 2 0 0 1 2 2v8a2 2 0 0 1-2 2H6a2 2 0 0 1-2-2V6Z"/></svg>
